src/images/cardBrands/visa.svg

<?xml version="1.0" encoding="UTF-8"?>
<svg width="24px" height="16px" viewBox="0 0 24 16" version="1.1" xmlns="http://www.w3.org/2000/svg" xmlns:xlink="http://www.w3.org/1999/xlink">
    <g id="319" stroke="none" stroke-width="1" fill="none" fill-rule="evenodd">
        <g id="New-Icons" transform="translate(-80.000000, -280.000000)" fill-rule="nonzero">
            <g id="Card-Brands" transform="translate(40.000000, 200.000000)">
                <g id="Color" transform="translate(0.000000, 80.000000)">
                    <g id="Visa" transform="translate(40.000000, 0.000000)">
                        <rect id="Container" stroke-opacity="0.2" stroke="#000000" stroke-width="0.5" fill="#FFFFFF" x="0.25" y="0.25" width="23.5" height="15.5" rx="2"></rect>
                        <path d="M2.78773262,5.91443732 C2.26459089,5.62750595 1.6675389,5.39673777 1,5.23659312 L1.0280005,5.1118821 L3.76497922,5.1118821 C4.13596254,5.12488556 4.43699113,5.23650585 4.53494636,5.63071135 L5.12976697,8.46659052 L5.31198338,9.32072617 L6.97796639,5.1118821 L8.77678896,5.1118821 L6.10288111,11.2775284 L4.30396552,11.2775284 L2.78773262,5.91443732 L2.78773262,5.91443732 Z M10.0999752,11.2840738 L8.39882877,11.2840738 L9.46284763,5.1118821 L11.163901,5.1118821 L10.0999752,11.2840738 Z M16.2667821,5.26277458 L16.0354292,6.59558538 L15.881566,6.53004446 C15.5737466,6.40524617 15.1674138,6.28053516 14.6143808,6.29371316 C13.942741,6.29371316 13.6415263,6.56277129 13.6345494,6.82545859 C13.6345494,7.11441463 13.998928,7.3048411 14.5939153,7.58725177 C15.5740257,8.02718756 16.0286384,8.56556562 16.0218476,9.26818871 C16.0080799,10.5486366 14.8460128,11.376058 13.0610509,11.376058 C12.2978746,11.3694253 11.5627918,11.2180965 11.163808,11.0475679 L11.4018587,9.66204513 L11.6258627,9.76066195 C12.1788958,9.99070971 12.5428092,10.0889775 13.221984,10.0889775 C13.7117601,10.0889775 14.2368857,9.89837643 14.2435835,9.48488392 C14.2435835,9.21565125 14.0198586,9.01850486 13.3617074,8.7164581 C12.717789,8.42086943 11.8568435,7.92848346 11.8707973,7.04197926 C11.8780532,5.84042483 13.0610509,5 14.7409877,5 C15.3990458,5 15.9312413,5.13788902 16.2667821,5.26277458 Z M18.5277524,9.0974856 L19.941731,9.0974856 C19.8717762,8.78889347 19.549631,7.31147374 19.549631,7.31147374 L19.4307452,6.77964104 C19.3467437,7.00942698 19.1998574,7.38373457 19.2069273,7.37055657 C19.2069273,7.37055657 18.6678479,8.74290137 18.5277524,9.0974856 Z M20.6276036,5.1118821 L22,11.2839865 L20.4249023,11.2839865 C20.4249023,11.2839865 20.2707601,10.5748181 20.221922,10.3581228 L18.0377903,10.3581228 C17.9746264,10.5221933 17.6807607,11.2839865 17.6807607,11.2839865 L15.8957988,11.2839865 L18.4226343,5.62399144 C18.5977072,5.22341512 18.9059917,5.1118821 19.3117663,5.1118821 L20.6276036,5.1118821 L20.6276036,5.1118821 Z" id="Shape" fill="#1434CB"></path>
                    </g>
                </g>
            </g>
        </g>
    </g>
</svg>

<svg xmlns="http://www.w3.org/2000/svg" viewBox="0 0 24 16"><rect x="0.25" y="0.25" width="23.5" height="15.5" rx="2" fill="#fff" stroke="#000" stroke-opacity="0.2" stroke-width="0.5"/><path d="M2.78773,5.91444A7.2015,7.2015,0,0,0,1,5.23659l.028-.12471H3.765c.371.013.672.12463.77.51883l.59482,2.83588.18221.85414L6.978,5.11188H8.77679L6.10288,11.27753H4.304L2.78773,5.91444ZM10.1,11.28407H8.39883l1.064-6.17219H11.1639Zm6.1668-6.0213-.23135,1.33282L15.88157,6.53a3.05382,3.05382,0,0,0-1.26719-.23633c-.67164,0-.97285.26906-.97983.53175,0,.289.36438.47938.95936.76179.98012.43994,1.43473.97832,1.42794,1.68094-.01377,1.28045-1.17584,2.10787-2.9608,2.10787a5.47764,5.47764,0,0,1-1.89724-.32849l.238-1.38552.224.09861A3.57268,3.57268,0,0,0,13.222,10.089c.48978,0,1.01491-.1906,1.0216-.6041,0-.26923-.22372-.46637-.88187-.76842-.64392-.29559-1.50487-.788-1.49091-1.67448C11.87805,5.84043,13.06105,5,14.741,5A4.43574,4.43574,0,0,1,16.26678,5.26277Zm2.261,3.83472h1.414c-.06995-.3086-.3921-1.786-.3921-1.786l-.11888-.53183c-.084.22979-.23089.60409-.22382.59092C19.20693,7.37056,18.66785,8.7429,18.52775,9.09749ZM20.6276,5.11188,22,11.284H20.4249s-.15414-.70917-.203-.92587H18.03779c-.06316.16407-.357.92587-.357.92587h-1.785l2.52683-5.66a.84586.84586,0,0,1,.88914-.51211Z" fill="#1434cb"/></svg>
